projects/canopy/src/assets/brand-icons/solutions.svg

<svg width="320" height="320" viewBox="0 0 320 320" fill="none" xmlns="http://www.w3.org/2000/svg">
<g id="am-solutions">
<path id="lg-icon-fill-primary" d="M288 64L314.343 90.3432C317.467 93.4673 317.467 98.5327 314.343 101.657L288 128H224V192H128V256H28C25.7909 256 24 254.209 24 252V196C24 193.791 25.7909 192 28 192H64V128H160V64H288Z" fill="#42AEEA"/>
<g id="Outlines">
<path d="M292 124C294.209 124 296 125.791 296 128V292C296 294.209 294.209 296 292 296H28C25.7909 296 24 294.209 24 292V256C24 253.791 25.7909 252 28 252H96C98.2091 252 100 253.791 100 256C100 258.209 98.2091 260 96 260H32V288H188V260H160C157.791 260 156 258.209 156 256C156 253.791 157.791 252 160 252H252V228H224C221.791 228 220 226.209 220 224C220 221.791 221.791 220 224 220H256C258.209 220 260 221.791 260 224V256C260 258.209 258.209 260 256 260H196V288H288V164H260V192C260 194.209 258.209 196 256 196C253.791 196 252 194.209 252 192V160C252 157.791 253.791 156 256 156H288V132H228V192C228 194.209 226.209 196 224 196H196V224C196 226.209 194.209 228 192 228H160C157.791 228 156 226.209 156 224C156 221.791 157.791 220 160 220H188V196H132V256C132 258.209 130.209 260 128 260C125.791 260 124 258.209 124 256V192C124 189.791 125.791 188 128 188H220V128C220 125.791 221.791 124 224 124H292Z" fill="#1D1D1B"/>
<path d="M32.123 220C34.3322 220 36.123 221.791 36.123 224C36.123 226.209 34.3322 228 32.123 228H32C29.7909 228 28 226.209 28 224C28 221.791 29.7909 220 32 220H32.123Z" fill="#1D1D1B"/>
<path d="M48.123 220C50.3322 220 52.123 221.791 52.123 224C52.123 226.209 50.3322 228 48.123 228H47.877C45.6678 228 43.877 226.209 43.877 224C43.877 221.791 45.6678 220 47.877 220H48.123Z" fill="#1D1D1B"/>
<path d="M64.123 220C66.3322 220 68.123 221.791 68.123 224C68.123 226.209 66.3322 228 64.123 228H63.877C61.6678 228 59.877 226.209 59.877 224C59.877 221.791 61.6678 220 63.877 220H64.123Z" fill="#1D1D1B"/>
<path d="M80.123 220C82.3322 220 84.123 221.791 84.123 224C84.123 226.209 82.3322 228 80.123 228H79.877C77.6678 228 75.877 226.209 75.877 224C75.877 221.791 77.6678 220 79.877 220H80.123Z" fill="#1D1D1B"/>
<path d="M96 219.877C98.2091 219.877 100 221.668 100 223.877V224C100 226.209 98.2091 228 96 228H95.877C93.6678 228 91.877 226.209 91.877 224C91.877 222.935 92.2932 221.968 92.9717 221.251L93.251 220.972C93.9677 220.293 94.9352 219.877 96 219.877Z" fill="#1D1D1B"/>
<path d="M96 203.877C98.2091 203.877 100 205.668 100 207.877V208.123C100 210.332 98.2091 212.123 96 212.123C93.7909 212.123 92 210.332 92 208.123V207.877C92 205.668 93.7909 203.877 96 203.877Z" fill="#1D1D1B"/>
<path d="M96 187.877C98.2091 187.877 100 189.668 100 191.877V192.123C100 194.332 98.2091 196.123 96 196.123C93.7909 196.123 92 194.332 92 192.123V191.877C92 189.668 93.7909 187.877 96 187.877Z" fill="#1D1D1B"/>
<path d="M292 24C294.209 24 296 25.7909 296 28V64C296 66.2091 294.209 68 292 68H164V96C164 98.2091 162.209 100 160 100H64C61.7909 100 60 98.2091 60 96C60 93.7909 61.7909 92 64 92H156V64C156 61.7909 157.791 60 160 60H288V32H132V64C132 66.2091 130.209 68 128 68C125.791 68 124 66.2091 124 64V32H32V60H96C98.2091 60 100 61.7909 100 64C100 66.2091 98.2091 68 96 68H32V188H60V128C60 125.791 61.7909 124 64 124H160C162.209 124 164 125.791 164 128C164 130.209 162.209 132 160 132H68V192C68 194.209 66.2091 196 64 196H28C25.7909 196 24 194.209 24 192V28C24 25.7909 25.7909 24 28 24H292Z" fill="#1D1D1B"/>
<path d="M96 171.877C98.2091 171.877 100 173.668 100 175.877V176.123C100 178.332 98.2091 180.123 96 180.123C93.7909 180.123 92 178.332 92 176.123V175.877C92 173.668 93.7909 171.877 96 171.877Z" fill="#1D1D1B"/>
<path d="M96.123 156C98.3322 156 100.123 157.791 100.123 160C100.123 161.065 99.706 162.031 99.0273 162.748L98.748 163.027C98.0315 163.706 97.0649 164.123 96 164.123C93.7909 164.123 92 162.332 92 160.123V160C92 157.791 93.7909 156 96 156H96.123Z" fill="#1D1D1B"/>
<path d="M112.123 156C114.332 156 116.123 157.791 116.123 160C116.123 162.209 114.332 164 112.123 164H111.877C109.668 164 107.877 162.209 107.877 160C107.877 157.791 109.668 156 111.877 156H112.123Z" fill="#1D1D1B"/>
<path d="M128.123 156C130.332 156 132.123 157.791 132.123 160C132.123 162.209 130.332 164 128.123 164H127.877C125.668 164 123.877 162.209 123.877 160C123.877 157.791 125.668 156 127.877 156H128.123Z" fill="#1D1D1B"/>
<path d="M144.123 156C146.332 156 148.123 157.791 148.123 160C148.123 162.209 146.332 164 144.123 164H143.877C141.668 164 139.877 162.209 139.877 160C139.877 157.791 141.668 156 143.877 156H144.123Z" fill="#1D1D1B"/>
<path d="M160.123 156C162.332 156 164.123 157.791 164.123 160C164.123 162.209 162.332 164 160.123 164H159.877C157.668 164 155.877 162.209 155.877 160C155.877 157.791 157.668 156 159.877 156H160.123Z" fill="#1D1D1B"/>
<path d="M176.123 156C178.332 156 180.123 157.791 180.123 160C180.123 162.209 178.332 164 176.123 164H175.877C173.668 164 171.877 162.209 171.877 160C171.877 157.791 173.668 156 175.877 156H176.123Z" fill="#1D1D1B"/>
<path d="M192 155.877C194.209 155.877 196 157.668 196 159.877V160C196 162.209 194.209 164 192 164H191.877C189.668 164 187.877 162.209 187.877 160C187.877 158.935 188.293 157.968 188.972 157.251L189.251 156.972C189.968 156.293 190.935 155.877 192 155.877Z" fill="#1D1D1B"/>
<path d="M192 139.877C194.209 139.877 196 141.668 196 143.877V144.123C196 146.332 194.209 148.123 192 148.123C189.791 148.123 188 146.332 188 144.123V143.877C188 141.668 189.791 139.877 192 139.877Z" fill="#1D1D1B"/>
<path d="M192 123.877C194.209 123.877 196 125.668 196 127.877V128.123C196 130.332 194.209 132.123 192 132.123C189.791 132.123 188 130.332 188 128.123V127.877C188 125.668 189.791 123.877 192 123.877Z" fill="#1D1D1B"/>
<path d="M192 107.877C194.209 107.877 196 109.668 196 111.877V112.123C196 114.332 194.209 116.123 192 116.123C189.791 116.123 188 114.332 188 112.123V111.877C188 109.668 189.791 107.877 192 107.877Z" fill="#1D1D1B"/>
<path d="M277.172 77.1719C278.734 75.6098 281.266 75.6098 282.828 77.1719L298.828 93.1719C300.39 94.734 300.39 97.266 298.828 98.8281L282.828 114.828C281.266 116.39 278.734 116.39 277.172 114.828C275.61 113.266 275.61 110.734 277.172 109.172L286.344 100H271.877C269.668 100 267.877 98.2091 267.877 96C267.877 93.7909 269.668 92 271.877 92H286.344L277.172 82.8281C275.61 81.266 275.61 78.734 277.172 77.1719Z" fill="#1D1D1B"/>
<path d="M192.329 92.0049C194.443 92.1121 196.123 93.86 196.123 96C196.123 97.0649 195.706 98.0315 195.027 98.748L194.748 99.0273C194.031 99.706 193.065 100.123 192 100.123C189.791 100.123 188 98.3322 188 96.123V96C188 93.7909 189.791 92 192 92H192.123L192.329 92.0049Z" fill="#1D1D1B"/>
<path d="M208.123 92C210.332 92 212.123 93.7909 212.123 96C212.123 98.2091 210.332 100 208.123 100H207.877C205.668 100 203.877 98.2091 203.877 96C203.877 93.7909 205.668 92 207.877 92H208.123Z" fill="#1D1D1B"/>
<path d="M224.123 92C226.332 92 228.123 93.7909 228.123 96C228.123 98.2091 226.332 100 224.123 100H223.877C221.668 100 219.877 98.2091 219.877 96C219.877 93.7909 221.668 92 223.877 92H224.123Z" fill="#1D1D1B"/>
<path d="M240.123 92C242.332 92 244.123 93.7909 244.123 96C244.123 98.2091 242.332 100 240.123 100H239.877C237.668 100 235.877 98.2091 235.877 96C235.877 93.7909 237.668 92 239.877 92H240.123Z" fill="#1D1D1B"/>
<path d="M256.123 92C258.332 92 260.123 93.7909 260.123 96C260.123 98.2091 258.332 100 256.123 100H255.877C253.668 100 251.877 98.2091 251.877 96C251.877 93.7909 253.668 92 255.877 92H256.123Z" fill="#1D1D1B"/>
</g>
</g>
</svg>

<svg xmlns="http://www.w3.org/2000/svg" width="320" height="320" fill="none" viewBox="0 0 320 320"><g id="am-solutions"><path id="lg-icon-fill-primary" fill="#42AEEA" d="m288 64 26.343 26.343a8 8 0 0 1 0 11.314L288 128h-64v64h-96v64H28a4 4 0 0 1-4-4v-56a4 4 0 0 1 4-4h36v-64h96V64z"/><g id="Outlines" fill="#1D1D1B"><path d="M292 124a4 4 0 0 1 4 4v164a4 4 0 0 1-4 4H28a4 4 0 0 1-4-4v-36a4 4 0 0 1 4-4h68a4 4 0 0 1 0 8H32v28h156v-28h-28a4 4 0 0 1 0-8h92v-24h-28a4 4 0 0 1 0-8h32a4 4 0 0 1 4 4v32a4 4 0 0 1-4 4h-60v28h92V164h-28v28a4 4 0 0 1-8 0v-32a4 4 0 0 1 4-4h32v-24h-60v60a4 4 0 0 1-4 4h-28v28a4 4 0 0 1-4 4h-32a4 4 0 0 1 0-8h28v-24h-56v60a4 4 0 0 1-8 0v-64a4 4 0 0 1 4-4h92v-60a4 4 0 0 1 4-4zM32.123 220a4 4 0 0 1 0 8H32a4 4 0 0 1 0-8zm16 0a4 4 0 0 1 0 8h-.246a4 4 0 0 1 0-8z"/><path d="M64.123 220a4 4 0 0 1 0 8h-.246a4 4 0 0 1 0-8zm16 0a4 4 0 0 1 0 8h-.246a4 4 0 0 1 0-8zM96 219.877a4 4 0 0 1 4 4V224a4 4 0 0 1-4 4h-.123a4 4 0 0 1-2.905-6.749l.279-.279A3.98 3.98 0 0 1 96 219.877m0-16a4 4 0 0 1 4 4v.246a4 4 0 0 1-8 0v-.246a4 4 0 0 1 4-4m0-16a4 4 0 0 1 4 4v.246a4 4 0 0 1-8 0v-.246a4 4 0 0 1 4-4M292 24a4 4 0 0 1 4 4v36a4 4 0 0 1-4 4H164v28a4 4 0 0 1-4 4H64a4 4 0 0 1 0-8h92V64a4 4 0 0 1 4-4h128V32H132v32a4 4 0 0 1-8 0V32H32v28h64a4 4 0 0 1 0 8H32v120h28v-60a4 4 0 0 1 4-4h96a4 4 0 0 1 0 8H68v60a4 4 0 0 1-4 4H28a4 4 0 0 1-4-4V28a4 4 0 0 1 4-4z"/><path d="M96 171.877a4 4 0 0 1 4 4v.246a4 4 0 0 1-8 0v-.246a4 4 0 0 1 4-4M96.123 156a4 4 0 0 1 2.904 6.748l-.279.279A4 4 0 0 1 92 160.123V160a4 4 0 0 1 4-4zm16 0a4 4 0 0 1 0 8h-.246a4 4 0 0 1 0-8zm16 0a4 4 0 0 1 0 8h-.246a4 4 0 0 1 0-8zm16 0a4 4 0 0 1 0 8h-.246a4 4 0 0 1 0-8zm16 0a4 4 0 0 1 0 8h-.246a4 4 0 0 1 0-8zm16 0a4 4 0 0 1 0 8h-.246a4 4 0 0 1 0-8zm15.877-.123a4 4 0 0 1 4 4V160a4 4 0 0 1-4 4h-.123a4 4 0 0 1-2.905-6.749l.279-.279a3.98 3.98 0 0 1 2.749-1.095m0-16a4 4 0 0 1 4 4v.246a4 4 0 0 1-8 0v-.246a4 4 0 0 1 4-4m0-16a4 4 0 0 1 4 4v.246a4 4 0 0 1-8 0v-.246a4 4 0 0 1 4-4m0-16a4 4 0 0 1 4 4v.246a4 4 0 0 1-8 0v-.246a4 4 0 0 1 4-4m85.172-30.705a4 4 0 0 1 5.656 0l16 16a4 4 0 0 1 0 5.656l-16 16a4 4 0 1 1-5.656-5.656l9.172-9.172h-14.467a4 4 0 0 1 0-8h14.467l-9.172-9.172a4 4 0 0 1 0-5.656m-84.843 14.833a4 4 0 0 1 2.698 6.743l-.279.28A4 4 0 0 1 188 96.123v-.124a4 4 0 0 1 4-4h.123zM208.123 92a4 4 0 0 1 0 8h-.246a4 4 0 0 1 0-8zm16 0a4 4 0 0 1 0 8h-.246a4 4 0 0 1 0-8zm16 0a4 4 0 0 1 0 8h-.246a4 4 0 0 1 0-8zm16 0a4 4 0 0 1 0 8h-.246a4 4 0 0 1 0-8z"/></g></g></svg>
